assets/images/icons/explore.svg

<svg fill="none" height="20" viewBox="0 0 20 20" width="20" xmlns="http://www.w3.org/2000/svg"><g fill="#878181" fill-opacity=".75"><path d="m12.2168 2.27979 7.7832 3.69818-7.499 4.17543zm-4.43357 15.40091-7.78323-3.6982 7.499-4.17635z"/><path d="m20 14.2536-10.82166 5.7464v-8.0627l10.82166-5.95912zm-20-8.54542 10.8217-5.70818v8.03091l-10.8217 5.95179z"/></g></svg>

<svg width="20" height="20" viewBox="0 0 20 20" fill="none" xmlns="http://www.w3.org/2000/svg">
<path d="M12.2168 2.27979L20 5.97797L12.501 10.1534L12.2168 2.27979ZM7.78323 17.6807L0 13.9825L7.499 9.80615L7.78323 17.6807Z" fill="#878181" fill-opacity="0.75"/>
<path d="M20 14.2536L9.17834 20V11.9373L20 5.97818V14.2536ZM0 5.70818L10.8217 0V8.03091L0 13.9827V5.70818Z" fill="#878181" fill-opacity="0.75"/>
</svg>
